images/about-us/clock.svg

<?xml version="1.0" encoding="UTF-8"?>
<svg width="71px" height="51px" viewBox="0 0 71 51" version="1.1" xmlns="http://www.w3.org/2000/svg" xmlns:xlink="http://www.w3.org/1999/xlink">
    <!-- Generator: sketchtool 50.2 (55047) - http://www.bohemiancoding.com/sketch -->
    <title>056D392B-36C3-46B7-9DCE-4CB2A5AEB57F</title>
    <desc>Created with sketchtool.</desc>
    <defs></defs>
    <g id="Illustration" stroke="none" stroke-width="1" fill="none" fill-rule="evenodd">
        <g id="ill" transform="translate(-453.000000, -519.000000)">
            <g id="Group-2" transform="translate(109.000000, 90.000000)">
                <g id="Group-15" transform="translate(344.000000, 429.000000)">
                    <path d="M66.8868,21.0685714 L66.8559429,32.2474286 C66.8696571,27.5177143 63.7462286,22.7828571 57.4959429,19.1742857 C45.0639429,11.9965714 24.9896571,11.9965714 12.6365143,19.1742857 C6.50622857,22.7365714 3.43765714,27.3977143 3.42394286,32.0674286 L3.45651429,20.8885714 C3.46851429,16.2188571 6.5388,11.5577143 12.6690857,7.99542857 C25.0222286,0.816 45.0948,0.816 57.5285143,7.99542857 C63.7788,11.604 66.9005143,16.3388571 66.8868,21.0685714" id="Fill-1" fill="#D6A500"></path>
                    <path d="M70.2786857,30.2566857 C70.2649714,35.4355429 66.8604,40.6041143 60.0615429,44.5555429 C46.3832571,52.5046857 24.1489714,52.5046857 10.3798286,44.5555429 C3.44897143,40.5526857 -0.0138857143,35.3001143 -0.000171428571,30.0561143 L0.0306857143,20.8772571 C0.0169714286,26.1212571 3.47982857,31.3738286 10.4124,35.3766857 C24.1798286,43.3258286 46.4141143,43.3258286 60.0941143,35.3749714 C66.8912571,31.4252571 70.2975429,26.2549714 70.3112571,21.0778286 L70.2786857,30.2566857 Z" id="Fill-3" fill="#EB9B00"></path>
                    <path d="M12.8257714,33.9735429 C25.2492,41.1461143 45.3217714,41.1461143 57.6646286,33.9735429 C70.0160571,26.7941143 69.9509143,15.1678286 57.5292,7.99525714 C45.0954857,0.815828571 25.0212,0.815828571 12.6680571,7.99525714 C0.326914286,15.1678286 0.392057143,26.7958286 12.8257714,33.9735429 M59.9429143,6.59125714 C73.7120571,14.5421143 73.7737714,27.4266857 60.0937714,35.3758286 C46.4137714,43.3266857 24.1812,43.3266857 10.4120571,35.3758286 C-3.35708571,27.4266857 -3.44108571,14.5421143 10.2389143,6.59125714 C23.9189143,-1.35788571 46.1737714,-1.35788571 59.9429143,6.59125714" id="Fill-6" fill="#FEC502"></path>
                    <path d="M3.52311687,22.115749 C4.00846383,17.849594 7.05537035,13.6675244 12.6675429,10.4062286 C25.0189714,3.22851429 45.0932571,3.22851429 57.5269714,10.4062286 C63.2343556,13.7013431 66.333488,17.9364269 66.8185511,22.2484918 C66.3346977,26.5185402 63.2852748,30.7064691 57.6646286,33.9735429 C45.3217714,41.1461143 25.2492,41.1461143 12.8257714,33.9735429 C7.10875583,30.6732334 4.00664893,26.4320643 3.52311687,22.115749 Z" id="Combined-Shape" fill="#FFFFFF"></path>
                    <path d="M34.3011429,33.5583429 C34.2034286,33.5737714 34.1502857,33.5806286 34.0971429,33.5857714 C34.032,33.5909143 33.9685714,33.5943429 33.9034286,33.5960571 C33.7988571,33.5960571 33.7542857,33.5960571 33.7114286,33.5943429 C33.6017143,33.5892 33.5622857,33.5857714 33.5228571,33.5806286 C33.4131429,33.5669143 33.3737143,33.5600571 33.3342857,33.5549143 C33.2245714,33.5326286 33.1714286,33.5223429 33.1234286,33.5086286 C33.0514286,33.4880571 32.9965714,33.4709143 32.9451429,33.4537714 C32.8628571,33.4212 32.8285714,33.4074857 32.7942857,33.3920571 C32.712,33.3543429 32.6828571,33.3389143 32.6537143,33.3234857 C32.5354286,33.2514857 32.5131429,33.2360571 32.4908571,33.2206286 C32.4325714,33.1760571 32.4034286,33.1520571 32.376,33.1263429 C32.3451429,33.0972 32.3228571,33.0732 32.3005714,33.0492 C32.2662857,33.0046286 32.2508571,32.9857714 32.2388571,32.9652 C32.2062857,32.9154857 32.196,32.8949143 32.1857143,32.8760571 C32.16,32.8177714 32.148,32.7886286 32.1394286,32.7577714 L29.2868571,22.1412 C29.2097143,21.8309143 29.3811429,21.5154857 29.7737143,21.2874857 L48.324,10.5080571 C48.9874286,10.1223429 50.0794286,10.1223429 50.7462857,10.5080571 C51.4131429,10.8920571 51.4182857,11.5246286 50.7548571,11.9103429 L32.8114286,22.3366286 L35.52,32.4543429 C35.5302857,32.4903429 35.5371429,32.5280571 35.5405714,32.5657714 C35.5422857,32.6274857 35.5405714,32.6514857 35.5388571,32.6754857 C35.5285714,32.7389143 35.5217143,32.7629143 35.5148571,32.7852 C35.4925714,32.8469143 35.4822857,32.8692 35.472,32.8914857 C35.4377143,32.9532 35.4188571,32.9806286 35.4,33.0046286 C35.3588571,33.0577714 35.3314286,33.0886286 35.3005714,33.1194857 C35.2474286,33.1640571 35.2234286,33.1846286 35.196,33.2052 C35.1291429,33.2532 35.1051429,33.2703429 35.0777143,33.2857714 C34.9508571,33.3560571 34.9234286,33.3714857 34.8942857,33.3834857 C34.8222857,33.4160571 34.7794286,33.4332 34.7365714,33.4486286 C34.6765714,33.4692 34.6405714,33.4812 34.6028571,33.4914857 C34.5222857,33.5137714 34.4914286,33.5206286 34.4588571,33.5274857 C34.3714286,33.5463429 34.3371429,33.5532 34.3011429,33.5583429" id="Fill-15" fill="#707070"></path>
                </g>
            </g>
        </g>
    </g>
</svg>

<svg xmlns="http://www.w3.org/2000/svg" width="71" height="51"><title>056D392B-36C3-46B7-9DCE-4CB2A5AEB57F</title><desc>Created with sketchtool.</desc><g fill="none"><g><g><g><path fill="#D6A500" d="M66.9 21.07l-.04 11.18c0-4.73-3.1-9.47-9.36-13.08C45.06 12 25 12 12.64 19.17c-6.13 3.57-9.2 8.23-9.22 12.9l.04-11.18c0-4.68 3.08-9.34 9.2-12.9C25.03.82 45.1.82 57.54 8c6.25 3.6 9.37 8.34 9.36 13.07"/><path fill="#EB9B00" d="M70.28 30.26c-.02 5.18-3.42 10.34-10.22 14.3-13.68 7.94-35.9 7.94-49.68 0-6.93-4-10.4-9.26-10.38-14.5l.03-9.18c0 5.24 3.45 10.5 10.38 14.5 13.78 7.95 36 7.95 49.7 0 6.8-3.95 10.2-9.13 10.2-14.3l-.02 9.18z"/><path fill="#FEC502" d="M12.83 33.97c12.42 7.18 32.5 7.18 44.83 0 12.36-7.18 12.3-18.8-.13-25.97C45.1.82 25.03.82 12.67 8 .33 15.17.4 26.8 12.83 33.97M59.93 6.6c13.78 7.94 13.84 20.83.16 28.78-13.7 7.95-35.92 7.95-49.7 0-13.76-7.95-13.84-20.84-.16-28.8 13.68-7.94 35.93-7.94 49.7 0"/><path fill="#fff" d="M3.52 22.12c.5-4.27 3.54-8.45 9.15-11.7 12.35-7.2 32.42-7.2 44.86 0 5.7 3.28 8.8 7.52 9.3 11.83-.5 4.27-3.54 8.46-9.17 11.72-12.34 7.18-32.4 7.18-44.83 0-5.72-3.3-8.82-7.54-9.3-11.85z"/><path fill="#707070" d="M34.3 33.56c-.1 0-.15.02-.2.03-.07 0-.13 0-.2 0-.1 0-.15 0-.2 0-.1 0-.14 0-.18-.02-.1 0-.15-.02-.2-.03-.1-.02-.15-.03-.2-.04-.07 0-.12-.03-.17-.05-.1-.03-.12-.04-.16-.06-.1-.05-.12-.06-.15-.08-.1-.07-.14-.08-.16-.1-.07-.04-.1-.07-.12-.1-.03-.02-.06-.05-.08-.07-.03-.05-.05-.06-.06-.08-.03-.05-.04-.08-.05-.1-.04-.05-.05-.08-.06-.1L29.3 22.13c-.1-.3.08-.62.47-.85l18.55-10.8c.67-.38 1.76-.38 2.43 0 .66.4.67 1.02 0 1.4L32.8 22.35l2.72 10.1c0 .05.02.1.02.13 0 .06 0 .08 0 .1 0 .07-.02.1-.03.12 0 .05-.02.07-.03.1-.03.05-.05.08-.07.1-.04.06-.07.1-.1.12-.05.04-.08.06-.1.1-.07.03-.1.05-.12.07-.13.06-.16.07-.2.08-.06.04-.1.05-.14.07-.06.02-.1.03-.14.04-.08 0-.1.02-.14.03-.1.02-.12.02-.16.03"/></g></g></g></g></svg>
